packages/ffe-icons/icons/open/400/sm/delete_sweep.svg

<svg xmlns="http://www.w3.org/2000/svg" height="20" viewBox="0 -960 960 960" width="20"><path d="M216-192q-29.7 0-50.85-21.15Q144-234.3 144-264v-360q-15 0-25.5-10.29t-10.5-25.5q0-15.21 10.35-25.71T144-696h120v-36q0-15.3 10.32-25.65Q284.65-768 299.91-768h71.83q15.26 0 25.76 10.35Q408-747.3 408-732v36h120q15.3 0 25.65 10.29Q564-675.42 564-660.21t-10.35 25.71Q543.3-624 528-624v360q0 29.7-21.15 50.85Q485.7-192 456-192H216Zm444.26-96q-15.26 0-25.76-10.29-10.5-10.29-10.5-25.5t10.32-25.71q10.33-10.5 25.59-10.5h71.83q15.26 0 25.76 10.29 10.5 10.29 10.5 25.5t-10.32 25.71Q747.35-288 732.09-288h-71.83ZM660-420q-15.3 0-25.65-10.29Q624-440.58 624-455.79t10.35-25.71Q644.7-492 660-492h120q15.3 0 25.65 10.29Q816-471.42 816-456.21t-10.35 25.71Q795.3-420 780-420H660Zm0-132q-15.3 0-25.65-10.29Q624-572.58 624-587.79t10.35-25.71Q644.7-624 660-624h168q15.3 0 25.65 10.29Q864-603.42 864-588.21t-10.35 25.71Q843.3-552 828-552H660Zm-444-72v360h240v-360H216Z"/></svg>

<svg xmlns="http://www.w3.org/2000/svg" height="20" viewBox="0 -960 960 960" width="20"><path d="M216-192q-29.7 0-50.85-21.15Q144-234.3 144-264v-360q-15 0-25.5-10.289-10.5-10.29-10.5-25.5Q108-675 118.35-685.5 128.7-696 144-696h120v-36q0-15.3 10.325-25.65Q284.65-768 299.912-768h71.825Q387-768 397.5-757.65 408-747.3 408-732v36h120q15.3 0 25.65 10.289 10.35 10.29 10.35 25.5Q564-645 553.65-634.5 543.3-624 528-624v360q0 29.7-21.15 50.85Q485.7-192 456-192H216Zm444.263-96Q645-288 634.5-298.289q-10.5-10.29-10.5-25.5Q624-339 634.325-349.5 644.65-360 659.912-360h71.825Q747-360 757.5-349.711q10.5 10.29 10.5 25.5Q768-309 757.675-298.5 747.35-288 732.088-288h-71.825ZM660-420q-15.3 0-25.65-10.289-10.35-10.29-10.35-25.5Q624-471 634.35-481.5 644.7-492 660-492h120q15.3 0 25.65 10.289 10.35 10.29 10.35 25.5Q816-441 805.65-430.5 795.3-420 780-420H660Zm0-132q-15.3 0-25.65-10.289-10.35-10.29-10.35-25.5Q624-603 634.35-613.5 644.7-624 660-624h168q15.3 0 25.65 10.289 10.35 10.29 10.35 25.5Q864-573 853.65-562.5 843.3-552 828-552H660Zm-444-72v360h240v-360H216Z"/></svg>
